SVG_Azure_All/Application Proxy.svg

<?xml version="1.0" encoding="UTF-8" standalone="no"?>
<!-- Generated by Microsoft Visio, SVG Export Application Proxy.svg Page-1 -->

<svg
   xmlns:dc="http://purl.org/dc/elements/1.1/"
   xmlns:cc="http://creativecommons.org/ns#"
   xmlns:rdf="http://www.w3.org/1999/02/22-rdf-syntax-ns#"
   xmlns:svg="http://www.w3.org/2000/svg"
   xmlns="http://www.w3.org/2000/svg"
   xmlns:sodipodi="http://sodipodi.sourceforge.net/DTD/sodipodi-0.dtd"
   xmlns:inkscape="http://www.inkscape.org/namespaces/inkscape"
   width="0.78743678in"
   height="0.78730333in"
   viewBox="0 0 56.69551 56.685902"
   xml:space="preserve"
   class="st4"
   version="1.1"
   id="svg29"
   sodipodi:docname="Application Proxy.svg"
   style="font-size:12px;overflow:visible;color-interpolation-filters:sRGB;fill:none;fill-rule:evenodd;stroke-linecap:square;stroke-miterlimit:3"
   inkscape:version="0.92.5 (2060ec1f9f, 2020-04-08)"><metadata
   id="metadata35"><rdf:RDF><cc:Work
       rdf:about=""><dc:format>image/svg+xml</dc:format><dc:type
         rdf:resource="http://purl.org/dc/dcmitype/StillImage" /></cc:Work></rdf:RDF></metadata><defs
   id="defs33" /><sodipodi:namedview
   pagecolor="#ffffff"
   bordercolor="#666666"
   borderopacity="1"
   objecttolerance="10"
   gridtolerance="10"
   guidetolerance="10"
   inkscape:pageopacity="0"
   inkscape:pageshadow="2"
   inkscape:window-width="640"
   inkscape:window-height="480"
   id="namedview31"
   showgrid="false"
   inkscape:zoom="0.98831442"
   inkscape:cx="37.795292"
   inkscape:cy="37.791292"
   inkscape:window-x="0"
   inkscape:window-y="0"
   inkscape:window-maximized="0"
   inkscape:current-layer="svg29" />
	<style
   type="text/css"
   id="style2">
	<![CDATA[
		.st1 {fill:#0072c6;stroke:none;stroke-linecap:butt;stroke-width:61.2}
		.st2 {fill:#b8d432;stroke:none;stroke-linecap:butt;stroke-width:61.2}
		.st3 {fill:#ffffff;stroke:none;stroke-linecap:butt;stroke-width:61.2}
		.st4 {fill:none;fill-rule:evenodd;font-size:12px;overflow:visible;stroke-linecap:square;stroke-miterlimit:3}
	]]>
	</style>

	<g
   id="g27"
   transform="translate(-61.2,-61.2041)">
		<title
   id="title4">Page-1</title>
		<g
   id="group9434-1"
   transform="translate(61.2,-61.2)">
			<title
   id="title6">Application Proxy</title>
			<g
   id="group9435-2">
				<title
   id="title8">Sheet.9435</title>
				<g
   id="shape9436-3"
   transform="translate(0,-8.5859)">
					<title
   id="title10">Sheet.9436</title>
					<path
   d="m 0,130.99 h 13.66 v 13.92 H 0 Z m 16.15,0 h 14.91 v 13.92 H 16.15 Z m 17.39,0 H 47.2 v 13.92 H 33.54 Z M 0,147.44 h 13.66 v 13.93 H 0 Z m 16.15,0 h 14.91 v 13.93 H 16.15 Z m 17.39,0 H 47.2 v 13.93 H 33.54 Z M 0,163.9 h 13.66 v 15.19 H 0 Z m 16.15,0 h 14.91 v 15.19 H 16.15 Z m 17.39,0 H 47.2 v 15.19 H 33.54 Z"
   class="st1"
   id="path12"
   inkscape:connector-curvature="0"
   style="fill:#0072c6;stroke:none;stroke-width:61.20000076;stroke-linecap:butt" />
				</g>
				<g
   id="shape9437-5"
   transform="translate(8.30551)">
					<title
   id="title15">Sheet.9437</title>
					<path
   d="m 24.14,179.09 a 4.53543,4.62151 0 0 1 -3.18,-1.38 L 1.35,157.73 A 4.54252,4.62873 0 0 1 0,154.49 4.53543,4.62151 0 0 1 1.35,151.24 l 19.61,-19.98 c 0.87,-0.89 2.03,-1.38 3.19,-1.38 1.16,0 2.32,0.49 3.19,1.38 l 19.7,20.07 c 0.87,0.89 1.35,1.98 1.35,3.25 a 4.53543,4.62151 0 0 1 -1.36,3.25 l -19.7,19.88 a 4.53543,4.62151 0 0 1 -3.19,1.38 z"
   class="st2"
   id="path17"
   inkscape:connector-curvature="0"
   style="fill:#b8d432;stroke:none;stroke-width:61.20000076;stroke-linecap:butt" />
				</g>
				<g
   id="shape9438-7"
   transform="translate(14.485,-4.33266)">
					<title
   id="title20">Sheet.9438</title>
					<path
   d="m 17.96,138.55 -6.37,6.5 h 4.54 v 9.44 h 3.77 v -9.44 h 4.44 z m 0,40.54 6.38,-6.49 H 19.8 v -9.25 h -3.77 v 9.25 h -4.44 z m 3,-20.27 6.37,6.5 v -4.53 h 8.6 v -3.94 h -8.6 v -4.53 z m -5.89,0 -6.38,-6.5 v 4.53 H 0 v 3.94 h 8.69 v 4.53 z"
   class="st3"
   id="path22"
   inkscape:connector-curvature="0"
   style="fill:#ffffff;stroke:none;stroke-width:61.20000076;stroke-linecap:butt" />
				</g>
			</g>
		</g>
	</g>
</svg>

<?xml version="1.0" encoding="UTF-8" standalone="no"?>
<!DOCTYPE svg PUBLIC "-//W3C//DTD SVG 1.1//EN" "http://www.w3.org/Graphics/SVG/1.1/DTD/svg11.dtd">
<!-- Generated by Microsoft Visio, SVG Export Application Proxy.svg Page-1 -->
<svg xmlns="http://www.w3.org/2000/svg" xmlns:xlink="http://www.w3.org/1999/xlink" xmlns:ev="http://www.w3.org/2001/xml-events"
		width="2.4874in" height="2.4874in" viewBox="0 0 179.093 179.093" xml:space="preserve" color-interpolation-filters="sRGB"
		class="st4">
	<style type="text/css">
	<![CDATA[
		.st1 {fill:#0072c6;stroke:none;stroke-linecap:butt;stroke-width:61.2}
		.st2 {fill:#b8d432;stroke:none;stroke-linecap:butt;stroke-width:61.2}
		.st3 {fill:#ffffff;stroke:none;stroke-linecap:butt;stroke-width:61.2}
		.st4 {fill:none;fill-rule:evenodd;font-size:12px;overflow:visible;stroke-linecap:square;stroke-miterlimit:3}
	]]>
	</style>

	<g>
		<title>Page-1</title>
		<g id="group9229-1" transform="translate(61.2,-61.2)">
			<title>Application Proxy</title>
			<g id="group9230-2">
				<title>Sheet.9230</title>
				<g id="shape9231-3" transform="translate(0,-8.5859)">
					<title>Sheet.9231</title>
					<path d="M0 130.99 L13.66 130.99 L13.66 144.91 L0 144.91 L0 130.99 ZM16.15 130.99 L31.06 130.99 L31.06 144.91
								 L16.15 144.91 L16.15 130.99 ZM33.54 130.99 L47.2 130.99 L47.2 144.91 L33.54 144.91 L33.54 130.99
								 ZM0 147.44 L13.66 147.44 L13.66 161.37 L0 161.37 L0 147.44 ZM16.15 147.44 L31.06 147.44 L31.06 161.37
								 L16.15 161.37 L16.15 147.44 ZM33.54 147.44 L47.2 147.44 L47.2 161.37 L33.54 161.37 L33.54 147.44
								 ZM0 163.9 L13.66 163.9 L13.66 179.09 L0 179.09 L0 163.9 ZM16.15 163.9 L31.06 163.9 L31.06 179.09
								 L16.15 179.09 L16.15 163.9 ZM33.54 163.9 L47.2 163.9 L47.2 179.09 L33.54 179.09 L33.54 163.9 Z"
							class="st1"/>
				</g>
				<g id="shape9232-5" transform="translate(8.30551,-2.84217E-13)">
					<title>Sheet.9232</title>
					<path d="M24.14 179.09 A4.53543 4.62151 0 0 1 20.96 177.71 L1.35 157.73 A4.54252 4.62873 0 0 1 0 154.49 A4.53543
								 4.62151 0 0 1 1.35 151.24 L20.96 131.26 C21.83 130.37 22.99 129.88 24.15 129.88 C25.31 129.88 26.47
								 130.37 27.34 131.26 L47.04 151.33 C47.91 152.22 48.39 153.31 48.39 154.58 A4.53543 4.62151 0 0 1
								 47.03 157.83 L27.33 177.71 A4.53543 4.62151 0 0 1 24.14 179.09 Z" class="st2"/>
				</g>
				<g id="shape9233-7" transform="translate(14.485,-4.33266)">
					<title>Sheet.9233</title>
					<path d="M17.96 138.55 L11.59 145.05 L16.13 145.05 L16.13 154.49 L19.9 154.49 L19.9 145.05 L24.34 145.05 L17.96
								 138.55 ZM17.96 179.09 L24.34 172.6 L19.8 172.6 L19.8 163.35 L16.03 163.35 L16.03 172.6 L11.59 172.6
								 L17.96 179.09 ZM20.96 158.82 L27.33 165.32 L27.33 160.79 L35.93 160.79 L35.93 156.85 L27.33 156.85
								 L27.33 152.32 L20.96 158.82 ZM15.07 158.82 L8.69 152.32 L8.69 156.85 L0 156.85 L0 160.79 L8.69 160.79
								 L8.69 165.32 L15.07 158.82 Z" class="st3"/>
				</g>
			</g>
		</g>
	</g>
</svg>
